themes/assets/icons/svg/remove.svg

<svg xmlns="http://www.w3.org/2000/svg" width="16" height="16">
    <path d="M5 4a1 1 0 0 0-1 1 1 1 0 0 0 .29.71L6.59 8l-2.3 2.29A1 1 0 0 0 4 11a1 1 0 0 0 1 1 1 1 0 0 0 .71-.29L8 9.41l2.28 2.29a1 1 0 0 0 .72.3 1 1 0 0 0 1-1 1 1 0 0 0-.29-.71L9.41 8l2.29-2.28A1 1 0 0 0 12 5a1 1 0 0 0-1-1 1 1 0 0 0-.71.29L8 6.59 5.72 4.3a1 1 0 0 0-.01-.01A1 1 0 0 0 5 4Z" style="fill:#dfdfdf"/>
</svg>

<svg xmlns="http://www.w3.org/2000/svg" width="16" height="16" version="1.1">
 <path style="fill:#dfdfdf" d="M 5,4 A 1,1 0 0 0 4,5 1,1 0 0 0 4.29,5.71 L 6.59,8 4.29,10.29 A 1,1 0 0 0 4,11 1,1 0 0 0 5,12 1,1 0 0 0 5.71,11.71 L 8,9.41 10.28,11.7 A 1,1 0 0 0 11,12 1,1 0 0 0 12,11 1,1 0 0 0 11.71,10.29 L 9.41,8 11.7,5.72 A 1,1 0 0 0 12,5 1,1 0 0 0 11,4 1,1 0 0 0 10.29,4.29 L 8,6.59 5.72,4.3 A 1,1 0 0 0 5.71,4.29 1,1 0 0 0 5,4 Z"/>
</svg>
